X: 10582
T: KEEP IT UP -- Reel
R: reel
B: K\"ohler's Violin Repository, v.1, 1885 p.58 #2
F: http://www.archive.org/details/klersviolinrepos01edin
Z: 2011 John Chambers <jc:trillian.mit.edu>
M: C|
L: 1/8
K: Edor
uc | (dE)(BE) dEEc | (dE)(BE) FDDc | (dE)(BE) GBeB | (cA)dA (FD)D :|
uf | (ge)be (ge)ef | (ge)be (fd)df | (ge)be (ge)fd | (cA)dA (FD)Df |
     (ge)be (ge)ef | (ge)ae (fd)df | (ge)fa (gb)eg | (fc)dA (FD)D "^D.C."|]

%%sep 2 1 500

